;Sliced by ideaMaker 5.2.4.8581, 2025-11-09 17:31:30 UTC-0600
;Slicer Version: 5.2.3.8580
;Dimension: 250.000 9999.000 250.000 0.400
;Plate Shape: 0
;Origin Center: 0
;Belt Printer: 1
;Belt Base Y: 5070.500
;Belt Base Z: 0.000
;Belt Offset Y: 0.000
;Belt Offset Z: 3585.384
;Belt Gantry Angle: 45
;Belt Remove Z: 0.283
;Belt Repetition: 1
;Extruder Offset #1: 25.000 0.000
;Filament Diameter #1: 1.750
;Filament Diameter #2: 1.750
;Filament Compensation #1: 98.000
;Filament Compensation #2: 100.000
;Filament Density #1: 1250.000
;Filament Density #2: 1250.000
;Filament Type #1: PLA
;Filament Type #2: PLA
;Filament Name #1: IdeaFormer PLA 1.75mm
;Filament Name #2: IdeaFormer PLA 1.75mm
;Filament #1: Ideaformer PLA 1.75mm
;Filament #2: Ideaformer PLA 1.75mm
;Printer Type: IdeaFormer IR3 V2
;Firmware: Klipper
;Bounding Box: 52.500 197.500 -0.150 49.347 0.200 53.483
;Model Gap: 0.000
;
;
M221 T0 S98.00
PRINT_START
M140 S65
M104 T0 S210
M109 T0 S210
M190 S65
G92 E0        ; Set axis to 0
G1 Y.1
G1 E15 F1000
G1 Z20 E25 F800
G1 E23
G28 Y
G1 E25
FMS_on
G1 X250 E50 F2000
G92 Z0
G1 Z.4
G1 X0 E75
G1 F1000
G92 E0 Z0
;end of Start GCode
;TOTAL_NUM: 1
;PRINTING_TIME: 0
;REMAINING_TIME: 3235
M83
;LAYER:0
;Z:0.400
;HEIGHT:0.400
;HEIGHT-BELT:0.283
;BELT-FIRST-Z:0.400
M106 S26
;PRINTING: module_bottom.stl
;PRINTING_ID: 0
G1 F1800 E-0.4000
SET_VELOCITY_LIMIT ACCEL=10000.00
G0 F15000 X52.700 Y0.050
G0 F600 Z0.400
SET_VELOCITY_LIMIT ACCEL=8000.00
;TYPE:WALL-OUTER
;WIDTH:0.400
;HEIGHT:0.400
;HEIGHT-BELT:0.283
G1 F1800 E0.4000
G1 F2400 X197.300 Y0.050 E4.8094
G1 X197.300 Y0.416 E0.0122
G1 X52.700 Y0.416 E4.8094
G1 X52.700 Y0.050 E0.0122
;PRINTING_TIME: 8
;REMAINING_TIME: 3228
;LAYER:1
;Z:0.683
;HEIGHT:0.283
;HEIGHT-BELT:0.200
;PRINTING: module_bottom.stl
;PRINTING_ID: 0
G1 F1800 E-0.4000
SET_VELOCITY_LIMIT ACCEL=10000.00
G0 F600 Z0.683
G0 F15000 X52.700 Y0.050
SET_VELOCITY_LIMIT ACCEL=8000.00
;TYPE:WALL-OUTER
;WIDTH:0.400
G1 F1800 E0.4000
G1 F4800 X197.300 Y0.050 E4.8094
G1 X197.300 Y0.816 E0.0255
G1 F2400 X52.700 Y0.816 E4.8094
G1 F4800 X52.700 Y0.050 E0.0255
SET_VELOCITY_LIMIT ACCEL=10000.00
G0 F15000 X52.900 Y0.433
;TYPE:GAP-FILL
;WIDTH:0.366
G1 F3600 X197.100 Y0.433 E4.3884
;PRINTING_TIME: 16
;REMAINING_TIME: 3220
;LAYER:2
;Z:0.966
;HEIGHT:0.283
;HEIGHT-BELT:0.200
;PRINTING: module_bottom.stl
;PRINTING_ID: 0
G1 F1800 E-0.4000
G0 F600 Z0.966
G0 F15000 X52.700 Y0.050
SET_VELOCITY_LIMIT ACCEL=8000.00
;TYPE:WALL-OUTER
;WIDTH:0.400
G1 F1800 E0.4000
G1 F5400 X197.300 Y0.050 E4.8094
G1 X197.300 Y1.216 E0.0388
G1 F2400 X52.700 Y1.216 E4.8094
G1 F5400 X52.700 Y0.050 E0.0388
SET_VELOCITY_LIMIT ACCEL=10000.00
G0 F15000 X53.100 Y0.450
;TYPE:WALL-INNER
;WIDTH:0.400
G1 F14400 X196.900 Y0.450 E4.7828
G1 X196.900 Y0.816 E0.0122
G1 X53.100 Y0.816 E4.7828
G1 X53.100 Y0.450 E0.0122
;PRINTING_TIME: 23
;REMAINING_TIME: 3212
;LAYER:3
;Z:1.249
;HEIGHT:0.283
;HEIGHT-BELT:0.200
;PRINTING: module_bottom.stl
;PRINTING_ID: 0
G1 F1800 E-0.4000
G0 F600 Z1.249
G0 F15000 X52.700 Y0.050
SET_VELOCITY_LIMIT ACCEL=8000.00
;TYPE:WALL-OUTER
;WIDTH:0.400
G1 F1800 E0.4000
G1 F6000 X197.300 Y0.050 E4.8094
G1 X197.300 Y1.616 E0.0521
G1 F2400 X52.700 Y1.616 E4.8094
G1 F6000 X52.700 Y0.050 E0.0521
SET_VELOCITY_LIMIT ACCEL=10000.00
G0 F15000 X53.100 Y0.450
;TYPE:WALL-INNER
;WIDTH:0.400
G1 F18000 X196.900 Y0.450 E4.7828
G1 X196.900 Y1.216 E0.0255
G1 X53.100 Y1.216 E4.7828
G1 X53.100 Y0.450 E0.0255
G0 F15000 X53.300 Y0.833
;TYPE:GAP-FILL
;WIDTH:0.366
G1 F3600 X196.700 Y0.833 E4.3641
;PRINTING_TIME: 31
;REMAINING_TIME: 3204
;LAYER:4
;Z:1.532
;HEIGHT:0.283
;HEIGHT-BELT:0.200
M106 S77
;PRINTING: module_bottom.stl
;PRINTING_ID: 0
G1 F1800 E-0.4000
G0 F600 Z1.532
G0 F15000 X52.700 Y0.050
SET_VELOCITY_LIMIT ACCEL=8000.00
;TYPE:WALL-OUTER
;WIDTH:0.400
G1 F1800 E0.4000
G1 F6000 X197.300 Y0.050 E4.8094
G1 X197.300 Y2.016 E0.0654
G1 F2400 X52.700 Y2.016 E4.8094
G1 F6000 X52.700 Y0.050 E0.0654
SET_VELOCITY_LIMIT ACCEL=10000.00
G0 F15000 X53.100 Y0.450
;TYPE:WALL-INNER
;WIDTH:0.400
G1 F18000 X196.900 Y0.450 E4.7828
G1 X196.900 Y1.616 E0.0388
G1 X53.100 Y1.616 E4.7828
G1 X53.100 Y0.450 E0.0388
G0 F15000 X53.663 Y0.775
;TYPE:GAP-FILL
;WIDTH:0.400
;WIDTH:0.201
G1 F3600 X54.008 Y0.712 E0.0059
;WIDTH:0.125
G1 X54.574 Y0.712 E0.0059
G1 X55.140 Y0.712 E0.0059
G1 X55.705 Y0.712 E0.0059
G1 X56.271 Y0.712 E0.0059
G1 X56.837 Y0.712 E0.0059
;WIDTH:0.126
G1 X57.402 Y0.712 E0.0059
;WIDTH:0.125
G1 X57.968 Y0.712 E0.0059
G1 X58.534 Y0.712 E0.0059
;WIDTH:0.126
G1 X59.099 Y0.712 E0.0059
;WIDTH:0.125
G1 X59.665 Y0.712 E0.0059
G1 X60.231 Y0.712 E0.0059
;WIDTH:0.126
G1 X60.796 Y0.712 E0.0059
;WIDTH:0.125
G1 X61.362 Y0.712 E0.0059
G1 X61.928 Y0.712 E0.0059
G1 X62.494 Y0.712 E0.0059
G1 X63.059 Y0.712 E0.0059
G1 X63.625 Y0.712 E0.0059
G1 X64.191 Y0.712 E0.0059
G1 X64.756 Y0.712 E0.0059
G1 X65.322 Y0.712 E0.0059
G1 X65.888 Y0.712 E0.0059
G1 X66.453 Y0.712 E0.0059
G1 X67.019 Y0.712 E0.0059
G1 X67.585 Y0.712 E0.0059
;WIDTH:0.126
G1 X68.150 Y0.712 E0.0059
;WIDTH:0.125
G1 X68.716 Y0.712 E0.0059
G1 X69.282 Y0.712 E0.0059
;WIDTH:0.126
G1 X69.847 Y0.712 E0.0059
;WIDTH:0.125
G1 X70.413 Y0.712 E0.0059
G1 X70.979 Y0.712 E0.0059
;WIDTH:0.126
G1 X71.544 Y0.712 E0.0059
;WIDTH:0.125
G1 X72.110 Y0.712 E0.0059
G1 X72.676 Y0.712 E0.0059
G1 X73.242 Y0.712 E0.0059
G1 X73.807 Y0.712 E0.0059
G1 X74.373 Y0.712 E0.0059
G1 X74.939 Y0.712 E0.0059
G1 X75.504 Y0.712 E0.0059
G1 X76.070 Y0.712 E0.0059
G1 X76.636 Y0.712 E0.0059
;WIDTH:0.126
G1 X77.201 Y0.712 E0.0059
;WIDTH:0.125
G1 X77.767 Y0.712 E0.0059
G1 X78.333 Y0.712 E0.0059
;WIDTH:0.126
G1 X78.898 Y0.712 E0.0059
;WIDTH:0.125
G1 X79.464 Y0.712 E0.0059
G1 X80.030 Y0.712 E0.0059
;WIDTH:0.126
G1 X80.595 Y0.712 E0.0059
;WIDTH:0.125
G1 X81.161 Y0.712 E0.0059
G1 X81.727 Y0.712 E0.0059
;WIDTH:0.126
G1 X82.292 Y0.712 E0.0059
;WIDTH:0.125
G1 X82.858 Y0.712 E0.0059
G1 X83.424 Y0.712 E0.0059
G1 X83.990 Y0.712 E0.0059
G1 X84.555 Y0.712 E0.0059
G1 X85.121 Y0.712 E0.0059
G1 X85.687 Y0.712 E0.0059
G1 X86.252 Y0.712 E0.0059
G1 X86.818 Y0.712 E0.0059
G1 X87.384 Y0.712 E0.0059
;WIDTH:0.126
G1 X87.949 Y0.712 E0.0059
;WIDTH:0.125
G1 X88.515 Y0.712 E0.0059
G1 X89.081 Y0.712 E0.0059
;WIDTH:0.126
G1 X89.646 Y0.712 E0.0059
;WIDTH:0.125
G1 X90.212 Y0.712 E0.0059
G1 X90.778 Y0.712 E0.0059
;WIDTH:0.126
G1 X91.343 Y0.712 E0.0059
;WIDTH:0.125
G1 X91.909 Y0.712 E0.0059
G1 X92.475 Y0.712 E0.0059
G1 X93.041 Y0.712 E0.0059
G1 X93.606 Y0.712 E0.0059
G1 X94.172 Y0.712 E0.0059
G1 X94.738 Y0.712 E0.0059
G1 X95.303 Y0.712 E0.0059
G1 X95.869 Y0.712 E0.0059
G1 X96.435 Y0.712 E0.0059
G1 X97.000 Y0.712 E0.0059
G1 X97.566 Y0.712 E0.0059
G1 X98.132 Y0.712 E0.0059
;WIDTH:0.126
G1 X98.697 Y0.712 E0.0059
;WIDTH:0.125
G1 X99.263 Y0.712 E0.0059
G1 X99.829 Y0.712 E0.0059
;WIDTH:0.126
G1 X100.394 Y0.712 E0.0059
;WIDTH:0.125
G1 X100.960 Y0.712 E0.0059
G1 X101.526 Y0.712 E0.0059
;WIDTH:0.126
G1 X102.091 Y0.712 E0.0059
;WIDTH:0.125
G1 X102.657 Y0.712 E0.0059
G1 X103.223 Y0.712 E0.0059
G1 X103.789 Y0.712 E0.0059
G1 X104.354 Y0.712 E0.0059
G1 X104.920 Y0.712 E0.0059
G1 X105.486 Y0.712 E0.0059
G1 X106.051 Y0.712 E0.0059
G1 X106.617 Y0.712 E0.0059
G1 X107.183 Y0.712 E0.0059
;WIDTH:0.126
G1 X107.748 Y0.712 E0.0059
;WIDTH:0.125
G1 X108.314 Y0.712 E0.0059
G1 X108.880 Y0.712 E0.0059
;WIDTH:0.126
G1 X109.445 Y0.712 E0.0059
;WIDTH:0.125
G1 X110.011 Y0.712 E0.0059
G1 X110.577 Y0.712 E0.0059
;WIDTH:0.126
G1 X111.142 Y0.712 E0.0059
;WIDTH:0.125
G1 X111.708 Y0.712 E0.0059
G1 X112.274 Y0.712 E0.0059
G1 X112.840 Y0.712 E0.0059
G1 X113.405 Y0.712 E0.0059
G1 X113.971 Y0.712 E0.0059
G1 X114.537 Y0.712 E0.0059
G1 X115.102 Y0.712 E0.0059
G1 X115.668 Y0.712 E0.0059
G1 X116.234 Y0.712 E0.0059
G1 X116.799 Y0.712 E0.0059
G1 X117.365 Y0.712 E0.0059
G1 X117.931 Y0.712 E0.0059
;WIDTH:0.126
G1 X118.496 Y0.712 E0.0059
;WIDTH:0.125
G1 X119.062 Y0.712 E0.0059
G1 X119.628 Y0.712 E0.0059
;WIDTH:0.126
G1 X120.193 Y0.712 E0.0059
;WIDTH:0.125
G1 X120.759 Y0.712 E0.0059
G1 X121.325 Y0.712 E0.0059
;WIDTH:0.126
G1 X121.890 Y0.712 E0.0059
;WIDTH:0.125
G1 X122.456 Y0.712 E0.0059
G1 X123.022 Y0.712 E0.0059
G1 X123.588 Y0.712 E0.0059
G1 X124.153 Y0.712 E0.0059
G1 X124.719 Y0.712 E0.0059
G1 X125.285 Y0.712 E0.0059
G1 X125.850 Y0.712 E0.0059
G1 X126.416 Y0.712 E0.0059
G1 X126.982 Y0.712 E0.0059
;WIDTH:0.126
G1 X127.547 Y0.712 E0.0059
;WIDTH:0.125
G1 X128.113 Y0.712 E0.0059
G1 X128.679 Y0.712 E0.0059
;WIDTH:0.126
G1 X129.244 Y0.712 E0.0059
;WIDTH:0.125
G1 X129.810 Y0.712 E0.0059
G1 X130.376 Y0.712 E0.0059
;WIDTH:0.126
G1 X130.941 Y0.712 E0.0059
;WIDTH:0.125
G1 X131.507 Y0.712 E0.0059
G1 X132.073 Y0.712 E0.0059
G1 X132.639 Y0.712 E0.0059
G1 X133.204 Y0.712 E0.0059
G1 X133.770 Y0.712 E0.0059
G1 X134.336 Y0.712 E0.0059
G1 X134.901 Y0.712 E0.0059
G1 X135.467 Y0.712 E0.0059
G1 X136.033 Y0.712 E0.0059
G1 X136.598 Y0.712 E0.0059
G1 X137.164 Y0.712 E0.0059
G1 X137.730 Y0.712 E0.0059
;WIDTH:0.126
G1 X138.295 Y0.712 E0.0059
;WIDTH:0.125
G1 X138.861 Y0.712 E0.0059
G1 X139.427 Y0.712 E0.0059
;WIDTH:0.126
G1 X139.992 Y0.712 E0.0059
;WIDTH:0.125
G1 X140.558 Y0.712 E0.0059
G1 X141.124 Y0.712 E0.0059
;WIDTH:0.126
G1 X141.689 Y0.712 E0.0059
;WIDTH:0.125
G1 X142.255 Y0.712 E0.0059
G1 X142.821 Y0.712 E0.0059
G1 X143.387 Y0.712 E0.0059
G1 X143.952 Y0.712 E0.0059
G1 X144.518 Y0.712 E0.0059
G1 X145.084 Y0.712 E0.0059
G1 X145.649 Y0.712 E0.0059
G1 X146.215 Y0.712 E0.0059
G1 X146.781 Y0.712 E0.0059
;WIDTH:0.126
G1 X147.346 Y0.712 E0.0059
;WIDTH:0.125
G1 X147.912 Y0.712 E0.0059
G1 X148.478 Y0.712 E0.0059
;WIDTH:0.126
G1 X149.043 Y0.712 E0.0059
;WIDTH:0.125
G1 X149.609 Y0.712 E0.0059
G1 X150.175 Y0.712 E0.0059
;WIDTH:0.126
G1 X150.740 Y0.712 E0.0059
;WIDTH:0.125
G1 X151.306 Y0.712 E0.0059
G1 X151.872 Y0.712 E0.0059
;WIDTH:0.126
G1 X152.437 Y0.712 E0.0059
;WIDTH:0.125
G1 X153.003 Y0.712 E0.0059
G1 X153.569 Y0.712 E0.0059
G1 X154.135 Y0.712 E0.0059
G1 X154.700 Y0.712 E0.0059
G1 X155.266 Y0.712 E0.0059
G1 X155.832 Y0.712 E0.0059
G1 X156.397 Y0.712 E0.0059
G1 X156.963 Y0.712 E0.0059
G1 X157.529 Y0.712 E0.0059
;WIDTH:0.126
G1 X158.094 Y0.712 E0.0059
;WIDTH:0.125
G1 X158.660 Y0.712 E0.0059
G1 X159.226 Y0.712 E0.0059
;WIDTH:0.126
G1 X159.791 Y0.712 E0.0059
;WIDTH:0.125
G1 X160.357 Y0.712 E0.0059
G1 X160.923 Y0.712 E0.0059
;WIDTH:0.126
G1 X161.488 Y0.712 E0.0059
;WIDTH:0.125
G1 X162.054 Y0.712 E0.0059
G1 X162.620 Y0.712 E0.0059
G1 X163.186 Y0.712 E0.0059
G1 X163.751 Y0.712 E0.0059
G1 X164.317 Y0.712 E0.0059
G1 X164.883 Y0.712 E0.0059
G1 X165.448 Y0.712 E0.0059
G1 X166.014 Y0.712 E0.0059
G1 X166.580 Y0.712 E0.0059
G1 X167.145 Y0.712 E0.0059
G1 X167.711 Y0.712 E0.0059
G1 X168.277 Y0.712 E0.0059
;WIDTH:0.126
G1 X168.842 Y0.712 E0.0059
;WIDTH:0.125
G1 X169.408 Y0.712 E0.0059
G1 X169.974 Y0.712 E0.0059
;WIDTH:0.126
G1 X170.539 Y0.712 E0.0059
;WIDTH:0.125
G1 X171.105 Y0.712 E0.0059
G1 X171.671 Y0.712 E0.0059
;WIDTH:0.126
G1 X172.236 Y0.712 E0.0059
;WIDTH:0.125
G1 X172.802 Y0.712 E0.0059
G1 X173.368 Y0.712 E0.0059
G1 X173.934 Y0.712 E0.0059
G1 X174.499 Y0.712 E0.0059
G1 X175.065 Y0.712 E0.0059
G1 X175.631 Y0.712 E0.0059
G1 X176.196 Y0.712 E0.0059
G1 X176.762 Y0.712 E0.0059
G1 X177.328 Y0.712 E0.0059
;WIDTH:0.126
G1 X177.893 Y0.712 E0.0059
;WIDTH:0.125
G1 X178.459 Y0.712 E0.0059
G1 X179.025 Y0.712 E0.0059
;WIDTH:0.126
G1 X179.590 Y0.712 E0.0059
;WIDTH:0.125
G1 X180.156 Y0.712 E0.0059
G1 X180.722 Y0.712 E0.0059
;WIDTH:0.126
G1 X181.287 Y0.712 E0.0059
;WIDTH:0.125
G1 X181.853 Y0.712 E0.0059
G1 X182.419 Y0.712 E0.0059
G1 X182.985 Y0.712 E0.0059
G1 X183.550 Y0.712 E0.0059
G1 X184.116 Y0.712 E0.0059
G1 X184.682 Y0.712 E0.0059
G1 X185.247 Y0.712 E0.0059
G1 X185.813 Y0.712 E0.0059
G1 X186.379 Y0.712 E0.0059
G1 X186.944 Y0.712 E0.0059
G1 X187.510 Y0.712 E0.0059
G1 X188.076 Y0.712 E0.0059
;WIDTH:0.126
G1 X188.641 Y0.712 E0.0059
;WIDTH:0.125
G1 X189.207 Y0.712 E0.0059
G1 X189.773 Y0.712 E0.0059
;WIDTH:0.126
G1 X190.338 Y0.712 E0.0059
;WIDTH:0.125
G1 X190.904 Y0.712 E0.0059
G1 X191.470 Y0.712 E0.0059
;WIDTH:0.126
G1 X192.035 Y0.712 E0.0059
;WIDTH:0.125
G1 X192.601 Y0.712 E0.0059
G1 X193.167 Y0.712 E0.0059
G1 X193.733 Y0.712 E0.0059
G1 X194.298 Y0.712 E0.0059
G1 X194.864 Y0.712 E0.0059
G1 X195.430 Y0.712 E0.0059
G1 X195.995 Y0.712 E0.0059
;WIDTH:0.400
G1 X196.341 Y0.649 E0.0117
G0 F15000 X54.228 Y0.775
;TYPE:BOTTOM-SURFACE
;WIDTH:0.400
;WIDTH:0.323
G1 F6000 X53.499 Y1.221 E0.0230
;WIDTH:0.600
G1 X53.701 Y1.019 E0.0143
;WIDTH:0.238
G1 X53.830 Y1.456 E0.0090
;WIDTH:0.162
G1 X54.492 Y1.360 E0.0090
;WIDTH:0.192
G1 X55.057 Y1.360 E0.0090
G1 X55.623 Y1.360 E0.0090
G1 X56.189 Y1.360 E0.0090
G1 X56.754 Y1.360 E0.0090
G1 X57.320 Y1.360 E0.0090
G1 X57.886 Y1.360 E0.0090
G1 X58.451 Y1.360 E0.0090
G1 X59.017 Y1.360 E0.0090
G1 X59.583 Y1.360 E0.0090
G1 X60.149 Y1.360 E0.0090
G1 X60.714 Y1.360 E0.0090
G1 X61.280 Y1.360 E0.0090
G1 X61.846 Y1.360 E0.0090
G1 X62.411 Y1.360 E0.0090
G1 X62.977 Y1.360 E0.0090
G1 X63.543 Y1.360 E0.0090
G1 X64.108 Y1.360 E0.0090
G1 X64.674 Y1.360 E0.0090
G1 X65.240 Y1.360 E0.0090
G1 X65.805 Y1.360 E0.0090
G1 X66.371 Y1.360 E0.0090
G1 X66.937 Y1.360 E0.0090
G1 X67.502 Y1.360 E0.0090
G1 X68.068 Y1.360 E0.0090
G1 X68.634 Y1.360 E0.0090
G1 X69.199 Y1.360 E0.0090
G1 X69.765 Y1.360 E0.0090
G1 X70.331 Y1.360 E0.0090
G1 X70.897 Y1.360 E0.0090
G1 X71.462 Y1.360 E0.0090
G1 X72.028 Y1.360 E0.0090
G1 X72.594 Y1.360 E0.0090
G1 X73.159 Y1.360 E0.0090
G1 X73.725 Y1.360 E0.0090
G1 X74.291 Y1.360 E0.0090
G1 X74.856 Y1.360 E0.0090
G1 X75.422 Y1.360 E0.0090
G1 X75.988 Y1.360 E0.0090
G1 X76.553 Y1.360 E0.0090
G1 X77.119 Y1.360 E0.0090
G1 X77.685 Y1.360 E0.0090
G1 X78.250 Y1.360 E0.0090
G1 X78.816 Y1.360 E0.0090
G1 X79.382 Y1.360 E0.0090
G1 X79.947 Y1.360 E0.0090
G1 X80.513 Y1.360 E0.0090
G1 X81.079 Y1.360 E0.0090
G1 X81.645 Y1.360 E0.0090
G1 X82.210 Y1.360 E0.0090
G1 X82.776 Y1.360 E0.0090
G1 X83.342 Y1.360 E0.0090
G1 X83.907 Y1.360 E0.0090
G1 X84.473 Y1.360 E0.0090
G1 X85.039 Y1.360 E0.0090
G1 X85.604 Y1.360 E0.0090
G1 X86.170 Y1.360 E0.0090
G1 X86.736 Y1.360 E0.0090
G1 X87.301 Y1.360 E0.0090
G1 X87.867 Y1.360 E0.0090
G1 X88.433 Y1.360 E0.0090
G1 X88.998 Y1.360 E0.0090
G1 X89.564 Y1.360 E0.0090
G1 X90.130 Y1.360 E0.0090
G1 X90.696 Y1.360 E0.0090
G1 X91.261 Y1.360 E0.0090
G1 X91.827 Y1.360 E0.0090
G1 X92.393 Y1.360 E0.0090
G1 X92.958 Y1.360 E0.0090
G1 X93.524 Y1.360 E0.0090
G1 X94.090 Y1.360 E0.0090
G1 X94.655 Y1.360 E0.0090
G1 X95.221 Y1.360 E0.0090
G1 X95.787 Y1.360 E0.0090
G1 X96.352 Y1.360 E0.0090
G1 X96.918 Y1.360 E0.0090
G1 X97.484 Y1.360 E0.0090
G1 X98.049 Y1.360 E0.0090
G1 X98.615 Y1.360 E0.0090
G1 X99.181 Y1.360 E0.0090
G1 X99.746 Y1.360 E0.0090
G1 X100.312 Y1.360 E0.0090
G1 X100.878 Y1.360 E0.0090
G1 X101.444 Y1.360 E0.0090
G1 X102.009 Y1.360 E0.0090
G1 X102.575 Y1.360 E0.0090
G1 X103.141 Y1.360 E0.0090
G1 X103.706 Y1.360 E0.0090
G1 X104.272 Y1.360 E0.0090
G1 X104.838 Y1.360 E0.0090
G1 X105.403 Y1.360 E0.0090
G1 X105.969 Y1.360 E0.0090
G1 X106.535 Y1.360 E0.0090
G1 X107.100 Y1.360 E0.0090
G1 X107.666 Y1.360 E0.0090
G1 X108.232 Y1.360 E0.0090
G1 X108.797 Y1.360 E0.0090
G1 X109.363 Y1.360 E0.0090
G1 X109.929 Y1.360 E0.0090
G1 X110.495 Y1.360 E0.0090
G1 X111.060 Y1.360 E0.0090
G1 X111.626 Y1.360 E0.0090
G1 X112.192 Y1.360 E0.0090
G1 X112.757 Y1.360 E0.0090
G1 X113.323 Y1.360 E0.0090
G1 X113.889 Y1.360 E0.0090
G1 X114.454 Y1.360 E0.0090
G1 X115.020 Y1.360 E0.0090
G1 X115.586 Y1.360 E0.0090
G1 X116.151 Y1.360 E0.0090
G1 X116.717 Y1.360 E0.0090
G1 X117.283 Y1.360 E0.0090
G1 X117.848 Y1.360 E0.0090
G1 X118.414 Y1.360 E0.0090
G1 X118.980 Y1.360 E0.0090
G1 X119.545 Y1.360 E0.0090
G1 X120.111 Y1.360 E0.0090
G1 X120.677 Y1.360 E0.0090
G1 X121.243 Y1.360 E0.0090
G1 X121.808 Y1.360 E0.0090
G1 X122.374 Y1.360 E0.0090
G1 X122.940 Y1.360 E0.0090
G1 X123.505 Y1.360 E0.0090
G1 X124.071 Y1.360 E0.0090
G1 X124.637 Y1.360 E0.0090
G1 X125.202 Y1.360 E0.0090
G1 X125.768 Y1.360 E0.0090
G1 X126.334 Y1.360 E0.0090
G1 X126.899 Y1.360 E0.0090
G1 X127.465 Y1.360 E0.0090
G1 X128.031 Y1.360 E0.0090
G1 X128.596 Y1.360 E0.0090
G1 X129.162 Y1.360 E0.0090
G1 X129.728 Y1.360 E0.0090
G1 X130.294 Y1.360 E0.0090
G1 X130.859 Y1.360 E0.0090
G1 X131.425 Y1.360 E0.0090
G1 X131.991 Y1.360 E0.0090
G1 X132.556 Y1.360 E0.0090
G1 X133.122 Y1.360 E0.0090
