;Sliced by ideaMaker 5.1.0.8435, 2025-11-07 13:46:41 UTC-0600
;Slicer Version: 5.1.0.8430
;Dimension: 250.000 9999.000 250.000 0.400
;Plate Shape: 0
;Origin Center: 0
;Belt Printer: 1
;Belt Base Y: 5043.500
;Belt Base Z: 0.000
;Belt Offset Y: 0.000
;Belt Offset Z: 3566.293
;Belt Gantry Angle: 45
;Belt Remove Z: 0.283
;Belt Repetition: 1
;Extruder Offset #1: 25.000 0.000
;Filament Diameter #1: 1.750
;Filament Diameter #2: 1.750
;Filament Compensation #1: 98.000
;Filament Compensation #2: 100.000
;Filament Density #1: 1250.000
;Filament Density #2: 1240.000
;Filament Type #1: PLA
;Filament Type #2: 
;Filament Name #1: IdeaFormer PLA 1.75mm
;Filament Name #2: 
;Printer Type: IdeaFormer IR3 V2
;Firmware: Klipper
;Bounding Box: 105.000 145.000 -0.150 11.163 0.200 12.683
;Model Gap: 0.000
;
;
M221 T0 S98.00
PRINT_START
M140 S65
M104 T0 S210
M109 T0 S210
M190 S65
G92 E0        ; Set axis to 0
G1 Y.1
G1 E15 F1000
G1 Z20 E25 F800
G1 E23
G28 Y
G1 E25
FMS_on
G1 X250 E50 F2000
G92 Z0
G1 Z.4
G1 X0 E75
G1 F1000
G92 E0 Z0
;end of Start GCode
;TOTAL_NUM: 1
;PRINTING_TIME: 0
;REMAINING_TIME: 522
M83
;LAYER:0
;Z:0.400
;HEIGHT:0.400
;HEIGHT-BELT:0.283
;BELT-FIRST-Z:0.400
M106 S26
;PRINTING: try1.stl
;PRINTING_ID: 0
G1 F1800 E-0.4000
SET_VELOCITY_LIMIT ACCEL=10000.00
G0 F15000 X105.200 Y0.050
G0 F600 Z0.400
SET_VELOCITY_LIMIT ACCEL=8000.00
;TYPE:WALL-OUTER
;WIDTH:0.400
;HEIGHT:0.400
;HEIGHT-BELT:0.283
G1 F1800 E0.4000
G1 F1047 X144.800 Y0.050 E1.3171
G1 X144.800 Y0.414 E0.0121
G1 X105.200 Y0.415 E1.3171
G1 X105.200 Y0.050 E0.0121
;PRINTING_TIME: 5
;REMAINING_TIME: 517
;LAYER:1
;Z:0.683
;HEIGHT:0.283
;HEIGHT-BELT:0.200
;PRINTING: try1.stl
;PRINTING_ID: 0
G1 F1800 E-0.4000
SET_VELOCITY_LIMIT ACCEL=10000.00
G0 F600 Z0.683
G0 F15000 X105.200 Y0.050
SET_VELOCITY_LIMIT ACCEL=8000.00
;TYPE:WALL-OUTER
;WIDTH:0.400
G1 F1800 E0.4000
G1 F2081 X144.800 Y0.050 E1.3171
G1 F1041 X144.800 Y0.814 E0.0254
G1 X105.200 Y0.815 E1.3171
G1 X105.200 Y0.530 E0.0095
G1 X105.200 Y0.050 E0.0160
SET_VELOCITY_LIMIT ACCEL=10000.00
G0 F15000 X105.399 Y0.314
;TYPE:GAP-FILL
;WIDTH:0.400
;WIDTH:0.405
G1 F1561 X105.799 Y0.431 E0.0140
;WIDTH:0.363
G1 X106.365 Y0.431 E0.0171
G1 X106.930 Y0.431 E0.0171
G1 X107.496 Y0.431 E0.0171
G1 X108.062 Y0.431 E0.0171
G1 X108.627 Y0.431 E0.0171
G1 X109.193 Y0.431 E0.0171
G1 X109.759 Y0.431 E0.0171
G1 X110.324 Y0.431 E0.0171
;WIDTH:0.362
G1 X110.890 Y0.431 E0.0170
;WIDTH:0.363
G1 X111.456 Y0.431 E0.0171
G1 X112.021 Y0.431 E0.0171
;WIDTH:0.362
G1 X112.587 Y0.431 E0.0170
;WIDTH:0.363
G1 X113.153 Y0.431 E0.0171
G1 X113.718 Y0.431 E0.0171
;WIDTH:0.362
G1 X114.284 Y0.431 E0.0170
;WIDTH:0.363
G1 X114.850 Y0.431 E0.0171
G1 X115.415 Y0.431 E0.0171
;WIDTH:0.362
G1 X115.981 Y0.431 E0.0170
;WIDTH:0.363
G1 X116.547 Y0.431 E0.0171
G1 X117.113 Y0.431 E0.0171
G1 X117.678 Y0.431 E0.0171
G1 X118.244 Y0.431 E0.0171
G1 X118.810 Y0.431 E0.0171
G1 X119.375 Y0.431 E0.0171
;WIDTH:0.362
G1 X119.941 Y0.431 E0.0170
;WIDTH:0.363
G1 X120.507 Y0.431 E0.0171
G1 X121.072 Y0.431 E0.0171
;WIDTH:0.362
G1 X121.638 Y0.431 E0.0170
;WIDTH:0.363
G1 X122.204 Y0.431 E0.0171
G1 X122.769 Y0.431 E0.0171
;WIDTH:0.362
G1 X123.335 Y0.431 E0.0170
;WIDTH:0.363
G1 X123.901 Y0.431 E0.0171
G1 X124.466 Y0.431 E0.0171
;WIDTH:0.362
G1 X125.032 Y0.431 E0.0170
;WIDTH:0.363
G1 X125.598 Y0.431 E0.0171
G1 X126.163 Y0.431 E0.0171
;WIDTH:0.362
G1 X126.729 Y0.431 E0.0170
;WIDTH:0.363
G1 X127.295 Y0.431 E0.0171
G1 X127.861 Y0.431 E0.0171
G1 X128.426 Y0.431 E0.0171
G1 X128.992 Y0.431 E0.0171
G1 X129.558 Y0.431 E0.0171
G1 X130.123 Y0.431 E0.0171
;WIDTH:0.362
G1 X130.689 Y0.431 E0.0170
;WIDTH:0.363
G1 X131.255 Y0.431 E0.0171
G1 X131.820 Y0.431 E0.0171
;WIDTH:0.362
G1 X132.386 Y0.431 E0.0170
;WIDTH:0.363
G1 X132.952 Y0.431 E0.0171
G1 X133.517 Y0.431 E0.0171
;WIDTH:0.362
G1 X134.083 Y0.431 E0.0170
;WIDTH:0.363
G1 X134.649 Y0.431 E0.0171
G1 X135.214 Y0.431 E0.0171
;WIDTH:0.362
G1 X135.780 Y0.431 E0.0170
;WIDTH:0.363
G1 X136.346 Y0.431 E0.0171
G1 X136.912 Y0.431 E0.0171
G1 X137.477 Y0.431 E0.0171
G1 X138.043 Y0.431 E0.0171
G1 X138.609 Y0.431 E0.0171
G1 X139.174 Y0.431 E0.0171
G1 X139.740 Y0.431 E0.0171
G1 X140.306 Y0.431 E0.0171
G1 X140.871 Y0.431 E0.0171
;WIDTH:0.362
G1 X141.437 Y0.431 E0.0170
;WIDTH:0.363
G1 X142.003 Y0.431 E0.0171
G1 X142.568 Y0.431 E0.0171
;WIDTH:0.362
G1 X143.134 Y0.431 E0.0170
;WIDTH:0.363
G1 X143.700 Y0.431 E0.0171
G1 X144.265 Y0.431 E0.0171
;WIDTH:0.400
G1 X144.599 Y0.482 E0.0112
;PRINTING_TIME: 10
;REMAINING_TIME: 512
;LAYER:2
;Z:0.966
;HEIGHT:0.283
;HEIGHT-BELT:0.200
;PRINTING: try1.stl
;PRINTING_ID: 0
G1 F1800 E-0.4000
G0 F600 Z0.966
G0 F15000 X105.200 Y0.050
SET_VELOCITY_LIMIT ACCEL=8000.00
;TYPE:WALL-OUTER
;WIDTH:0.400
G1 F1800 E0.4000
G1 F2863 X144.800 Y0.050 E1.3171
G1 F1272 X144.800 Y1.064 E0.0337
G1 X105.200 Y1.064 E1.3171
G1 X105.200 Y0.930 E0.0045
G1 X105.200 Y0.050 E0.0293
SET_VELOCITY_LIMIT ACCEL=10000.00
G0 F15000 X105.399 Y0.516
;TYPE:GAP-FILL
;WIDTH:0.400
G1 F1909 X105.666 Y0.249 E0.0126
G0 F1909 X106.232 Y0.249
G1 F1909 X105.617 Y0.863 E0.0289
G0 F1909 X106.183 Y0.863
G1 F1909 X106.797 Y0.249 E0.0289
G0 F1909 X107.363 Y0.249
G1 F1909 X106.749 Y0.863 E0.0289
G0 F1909 X107.314 Y0.863
G1 F1909 X107.929 Y0.249 E0.0289
G0 F1909 X108.494 Y0.249
G1 F1909 X107.880 Y0.863 E0.0289
G0 F1909 X108.446 Y0.863
G1 F1909 X109.060 Y0.249 E0.0289
G0 F1909 X109.626 Y0.249
G1 F1909 X109.011 Y0.863 E0.0289
G0 F1909 X109.577 Y0.863
G1 F1909 X110.191 Y0.249 E0.0289
G0 F1909 X110.757 Y0.249
G1 F1909 X110.143 Y0.863 E0.0289
G0 F1909 X110.708 Y0.863
G1 F1909 X111.323 Y0.249 E0.0289
G0 F1909 X111.889 Y0.249
G1 F1909 X111.274 Y0.863 E0.0289
G0 F1909 X111.840 Y0.863
G1 F1909 X112.454 Y0.249 E0.0289
G0 F1909 X113.020 Y0.249
G1 F1909 X112.405 Y0.863 E0.0289
G0 F1909 X112.971 Y0.863
G1 F1909 X113.586 Y0.249 E0.0289
G0 F1909 X114.151 Y0.249
G1 F1909 X113.537 Y0.863 E0.0289
G0 F1909 X114.102 Y0.863
G1 F1909 X114.717 Y0.249 E0.0289
G0 F1909 X115.283 Y0.249
G1 F1909 X114.668 Y0.863 E0.0289
G0 F1909 X115.234 Y0.863
G1 F1909 X115.848 Y0.249 E0.0289
G0 F1909 X116.414 Y0.249
G1 F1909 X115.800 Y0.863 E0.0289
G0 F1909 X116.365 Y0.863
G1 F1909 X116.980 Y0.249 E0.0289
G0 F1909 X117.545 Y0.249
G1 F1909 X116.931 Y0.863 E0.0289
G0 F1909 X117.497 Y0.863
G1 F1909 X118.111 Y0.249 E0.0289
G0 F1909 X118.677 Y0.249
G1 F1909 X118.062 Y0.863 E0.0289
G0 F1909 X118.628 Y0.863
G1 F1909 X119.242 Y0.249 E0.0289
G0 F1909 X119.808 Y0.249
G1 F1909 X119.194 Y0.863 E0.0289
G0 F1909 X119.759 Y0.863
G1 F1909 X120.374 Y0.249 E0.0289
G0 F1909 X120.940 Y0.249
G1 F1909 X120.325 Y0.863 E0.0289
G0 F1909 X120.891 Y0.863
G1 F1909 X121.505 Y0.249 E0.0289
G0 F1909 X122.071 Y0.249
G1 F1909 X121.456 Y0.863 E0.0289
G0 F1909 X122.022 Y0.863
G1 F1909 X122.637 Y0.249 E0.0289
G0 F1909 X123.202 Y0.249
G1 F1909 X122.588 Y0.863 E0.0289
G0 F1909 X123.153 Y0.863
G1 F1909 X123.768 Y0.249 E0.0289
G0 F1909 X124.334 Y0.249
G1 F1909 X123.719 Y0.863 E0.0289
G0 F1909 X124.285 Y0.863
G1 F1909 X124.899 Y0.249 E0.0289
G0 F1909 X125.465 Y0.249
G1 F1909 X124.851 Y0.863 E0.0289
G0 F1909 X125.416 Y0.863
G1 F1909 X126.031 Y0.249 E0.0289
G0 F1909 X126.596 Y0.249
G1 F1909 X125.982 Y0.863 E0.0289
G0 F1909 X126.548 Y0.863
G1 F1909 X127.162 Y0.249 E0.0289
G0 F1909 X127.728 Y0.249
G1 F1909 X127.113 Y0.863 E0.0289
G0 F1909 X127.679 Y0.863
G1 F1909 X128.293 Y0.249 E0.0289
G0 F1909 X128.859 Y0.249
G1 F1909 X128.245 Y0.863 E0.0289
G0 F1909 X128.810 Y0.863
G1 F1909 X129.425 Y0.249 E0.0289
G0 F1909 X129.990 Y0.249
G1 F1909 X129.376 Y0.863 E0.0289
G0 F1909 X129.942 Y0.863
G1 F1909 X130.556 Y0.249 E0.0289
G0 F1909 X131.122 Y0.249
G1 F1909 X130.507 Y0.863 E0.0289
G0 F1909 X131.073 Y0.863
G1 F1909 X131.688 Y0.249 E0.0289
G0 F1909 X132.253 Y0.249
G1 F1909 X131.639 Y0.863 E0.0289
G0 F1909 X132.204 Y0.863
G1 F1909 X132.819 Y0.249 E0.0289
G0 F1909 X133.385 Y0.249
G1 F1909 X132.770 Y0.863 E0.0289
G0 F1909 X133.336 Y0.863
G1 F1909 X133.950 Y0.249 E0.0289
G0 F1909 X134.516 Y0.249
G1 F1909 X133.901 Y0.863 E0.0289
G0 F1909 X134.467 Y0.863
G1 F1909 X135.082 Y0.249 E0.0289
G0 F1909 X135.647 Y0.249
G1 F1909 X135.033 Y0.863 E0.0289
G0 F1909 X135.599 Y0.863
G1 F1909 X136.213 Y0.249 E0.0289
G0 F1909 X136.779 Y0.249
G1 F1909 X136.164 Y0.863 E0.0289
G0 F1909 X136.730 Y0.863
G1 F1909 X137.344 Y0.249 E0.0289
G0 F1909 X137.910 Y0.249
G1 F1909 X137.296 Y0.863 E0.0289
G0 F1909 X137.861 Y0.863
G1 F1909 X138.476 Y0.249 E0.0289
G0 F1909 X139.041 Y0.249
G1 F1909 X138.427 Y0.863 E0.0289
G0 F1909 X138.993 Y0.863
G1 F1909 X139.607 Y0.249 E0.0289
G0 F1909 X140.173 Y0.249
G1 F1909 X139.558 Y0.863 E0.0289
G0 F1909 X140.124 Y0.863
G1 F1909 X140.738 Y0.249 E0.0289
G0 F1909 X141.304 Y0.249
G1 F1909 X140.690 Y0.863 E0.0289
G0 F1909 X141.255 Y0.863
G1 F1909 X141.870 Y0.249 E0.0289
G0 F1909 X142.436 Y0.249
G1 F1909 X141.821 Y0.863 E0.0289
G0 F1909 X142.387 Y0.863
G1 F1909 X143.001 Y0.249 E0.0289
G0 F1909 X143.567 Y0.249
G1 F1909 X142.952 Y0.863 E0.0289
G0 F1909 X143.518 Y0.863
G1 F1909 X144.133 Y0.249 E0.0289
G0 F1909 X144.599 Y0.349
G1 F1909 X144.084 Y0.863 E0.0242
;PRINTING_TIME: 17
;REMAINING_TIME: 506
;LAYER:3
;Z:1.249
;HEIGHT:0.283
;HEIGHT-BELT:0.200
;PRINTING: try1.stl
;PRINTING_ID: 0
G1 F1800 E-0.4000
G0 F600 Z1.249
G0 F15000 X105.200 Y0.050
SET_VELOCITY_LIMIT ACCEL=8000.00
;TYPE:WALL-OUTER
;WIDTH:0.400
G1 F1800 E0.4000
G1 F2322 X144.800 Y0.050 E1.3171
G1 X144.800 Y1.064 E0.0337
G1 X105.200 Y1.064 E1.3171
G1 X105.200 Y0.050 E0.0337
SET_VELOCITY_LIMIT ACCEL=10000.00
G0 F15000 X105.399 Y0.314
;TYPE:GAP-FILL
;WIDTH:0.400
G1 F1393 X105.948 Y0.863 E0.0258
G0 F1393 X106.514 Y0.863
G1 F1393 X105.900 Y0.250 E0.0289
G0 F1393 X106.466 Y0.250
G1 F1393 X107.080 Y0.863 E0.0289
G0 F1393 X107.645 Y0.863
G1 F1393 X107.031 Y0.250 E0.0289
G0 F1393 X107.597 Y0.250
G1 F1393 X108.211 Y0.863 E0.0289
G0 F1393 X108.777 Y0.863
G1 F1393 X108.163 Y0.250 E0.0289
G0 F1393 X108.728 Y0.250
G1 F1393 X109.342 Y0.863 E0.0289
G0 F1393 X109.908 Y0.863
G1 F1393 X109.294 Y0.250 E0.0289
G0 F1393 X109.860 Y0.250
G1 F1393 X110.474 Y0.863 E0.0289
G0 F1393 X111.039 Y0.863
G1 F1393 X110.426 Y0.250 E0.0288
G0 F1393 X110.991 Y0.250
G1 F1393 X111.605 Y0.863 E0.0289
G0 F1393 X112.171 Y0.863
G1 F1393 X111.557 Y0.250 E0.0289
G0 F1393 X112.123 Y0.250
G1 F1393 X112.736 Y0.863 E0.0288
G0 F1393 X113.302 Y0.863
G1 F1393 X112.688 Y0.250 E0.0289
G0 F1393 X113.254 Y0.250
G1 F1393 X113.868 Y0.863 E0.0289
G0 F1393 X114.433 Y0.863
G1 F1393 X113.820 Y0.250 E0.0288
G0 F1393 X114.385 Y0.250
G1 F1393 X114.999 Y0.863 E0.0289
G0 F1393 X115.565 Y0.863
G1 F1393 X114.951 Y0.250 E0.0289
G0 F1393 X115.517 Y0.250
G1 F1393 X116.130 Y0.863 E0.0288
G0 F1393 X116.696 Y0.863
G1 F1393 X116.082 Y0.250 E0.0289
G0 F1393 X116.648 Y0.250
G1 F1393 X117.262 Y0.863 E0.0289
G0 F1393 X117.828 Y0.863
G1 F1393 X117.214 Y0.250 E0.0289
G0 F1393 X117.779 Y0.250
G1 F1393 X118.393 Y0.863 E0.0289
G0 F1393 X118.959 Y0.863
G1 F1393 X118.345 Y0.250 E0.0289
G0 F1393 X118.911 Y0.250
G1 F1393 X119.525 Y0.863 E0.0289
G0 F1393 X120.090 Y0.863
G1 F1393 X119.477 Y0.250 E0.0288
G0 F1393 X120.042 Y0.250
G1 F1393 X120.656 Y0.863 E0.0289
G0 F1393 X121.222 Y0.863
G1 F1393 X120.608 Y0.250 E0.0289
G0 F1393 X121.174 Y0.250
G1 F1393 X121.787 Y0.863 E0.0288
G0 F1393 X122.353 Y0.863
G1 F1393 X121.739 Y0.250 E0.0289
G0 F1393 X122.305 Y0.250
G1 F1393 X122.919 Y0.863 E0.0289
G0 F1393 X123.484 Y0.863
G1 F1393 X122.871 Y0.250 E0.0288
G0 F1393 X123.436 Y0.250
G1 F1393 X124.050 Y0.863 E0.0289
G0 F1393 X124.616 Y0.863
G1 F1393 X124.002 Y0.250 E0.0289
G0 F1393 X124.568 Y0.250
G1 F1393 X125.181 Y0.863 E0.0288
G0 F1393 X125.747 Y0.863
G1 F1393 X125.133 Y0.250 E0.0289
G0 F1393 X125.699 Y0.250
G1 F1393 X126.313 Y0.863 E0.0289
G0 F1393 X126.878 Y0.863
G1 F1393 X126.265 Y0.250 E0.0288
G0 F1393 X126.830 Y0.250
G1 F1393 X127.444 Y0.863 E0.0289
G0 F1393 X128.010 Y0.863
G1 F1393 X127.396 Y0.250 E0.0289
G0 F1393 X127.962 Y0.250
G1 F1393 X128.576 Y0.863 E0.0289
G0 F1393 X129.141 Y0.863
G1 F1393 X128.527 Y0.250 E0.0289
G0 F1393 X129.093 Y0.250
G1 F1393 X129.707 Y0.863 E0.0289
G0 F1393 X130.273 Y0.863
G1 F1393 X129.659 Y0.250 E0.0289
G0 F1393 X130.225 Y0.250
G1 F1393 X130.838 Y0.863 E0.0288
G0 F1393 X131.404 Y0.863
G1 F1393 X130.790 Y0.250 E0.0289
G0 F1393 X131.356 Y0.250
G1 F1393 X131.970 Y0.863 E0.0289
G0 F1393 X132.535 Y0.863
G1 F1393 X131.922 Y0.250 E0.0288
G0 F1393 X132.487 Y0.250
G1 F1393 X133.101 Y0.863 E0.0289
G0 F1393 X133.667 Y0.863
G1 F1393 X133.053 Y0.250 E0.0289
G0 F1393 X133.619 Y0.250
G1 F1393 X134.232 Y0.863 E0.0288
G0 F1393 X134.798 Y0.863
G1 F1393 X134.184 Y0.250 E0.0289
G0 F1393 X134.750 Y0.250
G1 F1393 X135.364 Y0.863 E0.0289
G0 F1393 X135.929 Y0.863
G1 F1393 X135.316 Y0.250 E0.0288
G0 F1393 X135.881 Y0.250
G1 F1393 X136.495 Y0.863 E0.0289
G0 F1393 X137.061 Y0.863
G1 F1393 X136.447 Y0.250 E0.0289
G0 F1393 X137.013 Y0.250
G1 F1393 X137.627 Y0.863 E0.0289
G0 F1393 X138.192 Y0.863
G1 F1393 X137.578 Y0.250 E0.0289
G0 F1393 X138.144 Y0.250
G1 F1393 X138.758 Y0.863 E0.0289
G0 F1393 X139.324 Y0.863
G1 F1393 X138.710 Y0.250 E0.0289
G0 F1393 X139.275 Y0.250
G1 F1393 X139.889 Y0.863 E0.0289
G0 F1393 X140.455 Y0.863
G1 F1393 X139.841 Y0.250 E0.0289
G0 F1393 X140.407 Y0.250
G1 F1393 X141.021 Y0.863 E0.0289
G0 F1393 X141.586 Y0.863
G1 F1393 X140.973 Y0.250 E0.0288
G0 F1393 X141.538 Y0.250
G1 F1393 X142.152 Y0.863 E0.0289
G0 F1393 X142.718 Y0.863
G1 F1393 X142.104 Y0.250 E0.0289
G0 F1393 X142.670 Y0.250
G1 F1393 X143.283 Y0.863 E0.0288
G0 F1393 X143.849 Y0.863
G1 F1393 X143.235 Y0.250 E0.0289
G0 F1393 X143.801 Y0.250
G1 F1393 X144.415 Y0.863 E0.0289
G0 F1393 X144.599 Y0.482
G1 F1393 X144.367 Y0.250 E0.0109
;PRINTING_TIME: 24
;REMAINING_TIME: 499
;LAYER:4
;Z:1.532
;HEIGHT:0.283
;HEIGHT-BELT:0.200
M106 S77
;PRINTING: try1.stl
;PRINTING_ID: 0
G1 F1800 E-0.4000
G0 F600 Z1.532
G0 F15000 X105.200 Y0.050
SET_VELOCITY_LIMIT ACCEL=8000.00
;TYPE:WALL-OUTER
;WIDTH:0.400
G1 F1800 E0.4000
G1 F2324 X144.800 Y0.050 E1.3171
G1 X144.800 Y1.064 E0.0337
G1 X105.200 Y1.064 E1.3171
G1 X105.200 Y0.050 E0.0337
SET_VELOCITY_LIMIT ACCEL=10000.00
G0 F15000 X105.399 Y0.516
;TYPE:GAP-FILL
;WIDTH:0.400
G1 F1395 X105.666 Y0.249 E0.0126
G0 F1395 X106.232 Y0.249
G1 F1395 X105.617 Y0.863 E0.0289
G0 F1395 X106.183 Y0.863
G1 F1395 X106.797 Y0.249 E0.0289
G0 F1395 X107.363 Y0.249
G1 F1395 X106.749 Y0.863 E0.0289
G0 F1395 X107.314 Y0.863
G1 F1395 X107.929 Y0.249 E0.0289
G0 F1395 X108.494 Y0.249
G1 F1395 X107.880 Y0.863 E0.0289
G0 F1395 X108.446 Y0.863
G1 F1395 X109.060 Y0.249 E0.0289
G0 F1395 X109.626 Y0.249
G1 F1395 X109.011 Y0.863 E0.0289
G0 F1395 X109.577 Y0.863
G1 F1395 X110.191 Y0.249 E0.0289
G0 F1395 X110.757 Y0.249
G1 F1395 X110.143 Y0.863 E0.0289
G0 F1395 X110.708 Y0.863
G1 F1395 X111.323 Y0.249 E0.0289
G0 F1395 X111.889 Y0.249
G1 F1395 X111.274 Y0.863 E0.0289
G0 F1395 X111.840 Y0.863
G1 F1395 X112.454 Y0.249 E0.0289
G0 F1395 X113.020 Y0.249
G1 F1395 X112.405 Y0.863 E0.0289
G0 F1395 X112.971 Y0.863
G1 F1395 X113.586 Y0.249 E0.0289
G0 F1395 X114.151 Y0.249
G1 F1395 X113.537 Y0.863 E0.0289
G0 F1395 X114.102 Y0.863
G1 F1395 X114.717 Y0.249 E0.0289
G0 F1395 X115.283 Y0.249
G1 F1395 X114.668 Y0.863 E0.0289
G0 F1395 X115.234 Y0.863
G1 F1395 X115.848 Y0.249 E0.0289
G0 F1395 X116.414 Y0.249
G1 F1395 X115.800 Y0.863 E0.0289
G0 F1395 X116.365 Y0.863
G1 F1395 X116.980 Y0.249 E0.0289
G0 F1395 X117.545 Y0.249
G1 F1395 X116.931 Y0.863 E0.0289
G0 F1395 X117.497 Y0.863
G1 F1395 X118.111 Y0.249 E0.0289
G0 F1395 X118.677 Y0.249
G1 F1395 X118.062 Y0.863 E0.0289
G0 F1395 X118.628 Y0.863
G1 F1395 X119.242 Y0.249 E0.0289
G0 F1395 X119.808 Y0.249
G1 F1395 X119.194 Y0.863 E0.0289
G0 F1395 X119.759 Y0.863
G1 F1395 X120.374 Y0.249 E0.0289
G0 F1395 X120.940 Y0.249
G1 F1395 X120.325 Y0.863 E0.0289
G0 F1395 X120.891 Y0.863
G1 F1395 X121.505 Y0.249 E0.0289
G0 F1395 X122.071 Y0.249
G1 F1395 X121.456 Y0.863 E0.0289
G0 F1395 X122.022 Y0.863
G1 F1395 X122.637 Y0.249 E0.0289
G0 F1395 X123.202 Y0.249
G1 F1395 X122.588 Y0.863 E0.0289
G0 F1395 X123.153 Y0.863
G1 F1395 X123.768 Y0.249 E0.0289
G0 F1395 X124.334 Y0.249
G1 F1395 X123.719 Y0.863 E0.0289
G0 F1395 X124.285 Y0.863
G1 F1395 X124.899 Y0.249 E0.0289
G0 F1395 X125.465 Y0.249
G1 F1395 X124.851 Y0.863 E0.0289
G0 F1395 X125.416 Y0.863
