;Sliced by ideaMaker 5.1.0.8435, 2025-11-07 20:36:06 UTC-0600
;Slicer Version: 5.1.0.8430
;Dimension: 250.000 9999.000 250.000 0.400
;Plate Shape: 0
;Origin Center: 0
;Belt Printer: 1
;Belt Base Y: 5049.500
;Belt Base Z: 0.000
;Belt Offset Y: 0.000
;Belt Offset Z: 3570.535
;Belt Gantry Angle: 45
;Belt Remove Z: 0.283
;Belt Repetition: 1
;Extruder Offset #1: 25.000 0.000
;Filament Diameter #1: 1.750
;Filament Diameter #2: 1.750
;Filament Compensation #1: 98.000
;Filament Compensation #2: 100.000
;Filament Density #1: 1250.000
;Filament Density #2: 1240.000
;Filament Type #1: PLA
;Filament Type #2: 
;Filament Name #1: IdeaFormer PLA 1.75mm
;Filament Name #2: 
;Printer Type: IdeaFormer IR3 V2
;Firmware: Klipper
;Bounding Box: 112.500 137.500 -0.150 11.163 0.200 14.683
;Model Gap: 0.000
;
;
M221 T0 S98.00
PRINT_START
M140 S65
M104 T0 S210
M109 T0 S210
M190 S65
G92 E0        ; Set axis to 0
G1 Y.1
G1 E15 F1000
G1 Z20 E25 F800
G1 E23
G28 Y
G1 E25
FMS_on
G1 X250 E50 F2000
G92 Z0
G1 Z.4
G1 X0 E75
G1 F1000
G92 E0 Z0
;end of Start GCode
;TOTAL_NUM: 1
;PRINTING_TIME: 0
;REMAINING_TIME: 520
M83
;LAYER:0
;Z:0.400
;HEIGHT:0.400
;HEIGHT-BELT:0.283
;BELT-FIRST-Z:0.400
M106 S26
;PRINTING: try3, no 3.stl
;PRINTING_ID: 0
G1 F1800 E-0.4000
SET_VELOCITY_LIMIT ACCEL=10000.00
G0 F15000 X112.700 Y0.050
G0 F600 Z0.400
SET_VELOCITY_LIMIT ACCEL=8000.00
;TYPE:WALL-OUTER
;WIDTH:0.400
;HEIGHT:0.400
;HEIGHT-BELT:0.283
G1 F1800 E0.4000
G1 F659 X137.300 Y0.050 E0.8182
G1 X137.300 Y0.416 E0.0122
G1 X112.700 Y0.416 E0.8182
G1 X112.700 Y0.050 E0.0122
;PRINTING_TIME: 5
;REMAINING_TIME: 515
;LAYER:1
;Z:0.683
;HEIGHT:0.283
;HEIGHT-BELT:0.200
;PRINTING: try3, no 3.stl
;PRINTING_ID: 0
G1 F1800 E-0.4000
SET_VELOCITY_LIMIT ACCEL=10000.00
G0 F600 Z0.683
G0 F15000 X112.700 Y0.050
SET_VELOCITY_LIMIT ACCEL=8000.00
;TYPE:WALL-OUTER
;WIDTH:0.400
G1 F1800 E0.4000
G1 F1294 X137.300 Y0.050 E0.8182
G1 F647 X137.300 Y0.816 E0.0255
G1 X112.700 Y0.816 E0.8182
G1 X112.700 Y0.531 E0.0095
G1 X112.700 Y0.050 E0.0160
SET_VELOCITY_LIMIT ACCEL=10000.00
G0 F15000 X112.898 Y0.460
;TYPE:GAP-FILL
;WIDTH:0.400
;WIDTH:0.340
G1 F970 X113.154 Y0.432 E0.0073
;WIDTH:0.364
G1 X113.720 Y0.432 E0.0171
;WIDTH:0.365
G1 X114.285 Y0.432 E0.0171
;WIDTH:0.364
G1 X114.851 Y0.432 E0.0171
G1 X115.417 Y0.432 E0.0171
;WIDTH:0.365
G1 X115.982 Y0.432 E0.0171
;WIDTH:0.364
G1 X116.548 Y0.432 E0.0171
G1 X117.114 Y0.432 E0.0171
;WIDTH:0.365
G1 X117.679 Y0.432 E0.0171
;WIDTH:0.364
G1 X118.245 Y0.432 E0.0171
G1 X118.811 Y0.432 E0.0171
;WIDTH:0.365
G1 X119.376 Y0.432 E0.0171
;WIDTH:0.364
G1 X119.942 Y0.432 E0.0171
G1 X120.508 Y0.432 E0.0171
;WIDTH:0.365
G1 X121.073 Y0.432 E0.0171
;WIDTH:0.364
G1 X121.639 Y0.432 E0.0171
G1 X122.205 Y0.432 E0.0171
G1 X122.771 Y0.432 E0.0171
;WIDTH:0.365
G1 X123.336 Y0.432 E0.0171
;WIDTH:0.364
G1 X123.902 Y0.432 E0.0171
G1 X124.468 Y0.432 E0.0171
;WIDTH:0.365
G1 X125.033 Y0.432 E0.0171
;WIDTH:0.364
G1 X125.599 Y0.432 E0.0171
G1 X126.165 Y0.432 E0.0171
;WIDTH:0.365
G1 X126.730 Y0.432 E0.0171
;WIDTH:0.364
G1 X127.296 Y0.432 E0.0171
G1 X127.862 Y0.432 E0.0171
;WIDTH:0.365
G1 X128.427 Y0.432 E0.0171
;WIDTH:0.364
G1 X128.993 Y0.432 E0.0171
G1 X129.559 Y0.432 E0.0171
;WIDTH:0.365
G1 X130.124 Y0.432 E0.0171
;WIDTH:0.364
G1 X130.690 Y0.432 E0.0171
G1 X131.256 Y0.432 E0.0171
;WIDTH:0.365
G1 X131.821 Y0.432 E0.0171
;WIDTH:0.364
G1 X132.387 Y0.432 E0.0171
G1 X132.953 Y0.432 E0.0171
G1 X133.519 Y0.432 E0.0171
;WIDTH:0.365
G1 X134.084 Y0.432 E0.0171
;WIDTH:0.364
G1 X134.650 Y0.432 E0.0171
G1 X135.216 Y0.432 E0.0171
;WIDTH:0.365
G1 X135.781 Y0.432 E0.0171
;WIDTH:0.364
G1 X136.347 Y0.432 E0.0171
;WIDTH:0.338
G1 X136.956 Y0.475 E0.0172
;WIDTH:0.400
G1 X137.013 Y0.250 E0.0077
;PRINTING_TIME: 10
;REMAINING_TIME: 510
;LAYER:2
;Z:0.966
;HEIGHT:0.283
;HEIGHT-BELT:0.200
;PRINTING: try3, no 3.stl
;PRINTING_ID: 0
G1 F1800 E-0.4000
G0 F600 Z0.966
G0 F15000 X112.700 Y0.050
SET_VELOCITY_LIMIT ACCEL=8000.00
;TYPE:WALL-OUTER
;WIDTH:0.400
G1 F1800 E0.4000
G1 F1751 X137.300 Y0.050 E0.8182
G1 F778 X137.300 Y1.064 E0.0337
G1 X112.700 Y1.064 E0.8182
G1 X112.700 Y0.931 E0.0044
G1 X112.700 Y0.050 E0.0293
SET_VELOCITY_LIMIT ACCEL=10000.00
G0 F15000 X113.019 Y0.250
;TYPE:GAP-FILL
;WIDTH:0.400
G1 F1167 X112.899 Y0.370 E0.0056
G0 F1167 X112.971 Y0.863
G1 F1167 X113.585 Y0.250 E0.0289
G0 F1167 X114.151 Y0.250
G1 F1167 X113.537 Y0.863 E0.0289
G0 F1167 X114.102 Y0.863
G1 F1167 X114.716 Y0.250 E0.0289
G0 F1167 X115.282 Y0.250
G1 F1167 X114.668 Y0.863 E0.0289
G0 F1167 X115.234 Y0.863
G1 F1167 X115.848 Y0.250 E0.0289
G0 F1167 X116.413 Y0.250
G1 F1167 X115.800 Y0.863 E0.0288
G0 F1167 X116.365 Y0.863
G1 F1167 X116.979 Y0.250 E0.0289
G0 F1167 X117.545 Y0.250
G1 F1167 X116.931 Y0.863 E0.0289
G0 F1167 X117.497 Y0.863
G1 F1167 X118.110 Y0.250 E0.0288
G0 F1167 X118.676 Y0.250
G1 F1167 X118.062 Y0.863 E0.0289
G0 F1167 X118.628 Y0.863
G1 F1167 X119.242 Y0.250 E0.0289
G0 F1167 X119.807 Y0.250
G1 F1167 X119.194 Y0.863 E0.0288
G0 F1167 X119.759 Y0.863
G1 F1167 X120.373 Y0.250 E0.0289
G0 F1167 X120.939 Y0.250
G1 F1167 X120.325 Y0.863 E0.0289
G0 F1167 X120.891 Y0.863
G1 F1167 X121.504 Y0.250 E0.0288
G0 F1167 X122.070 Y0.250
G1 F1167 X121.456 Y0.863 E0.0289
G0 F1167 X122.022 Y0.863
G1 F1167 X122.636 Y0.250 E0.0289
G0 F1167 X123.202 Y0.250
G1 F1167 X122.588 Y0.863 E0.0289
G0 F1167 X123.153 Y0.863
G1 F1167 X123.767 Y0.250 E0.0289
G0 F1167 X124.333 Y0.250
G1 F1167 X123.719 Y0.863 E0.0289
G0 F1167 X124.285 Y0.863
G1 F1167 X124.899 Y0.250 E0.0289
G0 F1167 X125.464 Y0.250
G1 F1167 X124.851 Y0.863 E0.0288
G0 F1167 X125.416 Y0.863
G1 F1167 X126.030 Y0.250 E0.0289
G0 F1167 X126.596 Y0.250
G1 F1167 X125.982 Y0.863 E0.0289
G0 F1167 X126.548 Y0.863
G1 F1167 X127.161 Y0.250 E0.0288
G0 F1167 X127.727 Y0.250
G1 F1167 X127.113 Y0.863 E0.0289
G0 F1167 X127.679 Y0.863
G1 F1167 X128.293 Y0.250 E0.0289
G0 F1167 X128.858 Y0.250
G1 F1167 X128.245 Y0.863 E0.0288
G0 F1167 X128.810 Y0.863
G1 F1167 X129.424 Y0.250 E0.0289
G0 F1167 X129.990 Y0.250
G1 F1167 X129.376 Y0.863 E0.0289
G0 F1167 X129.942 Y0.863
G1 F1167 X130.555 Y0.250 E0.0288
G0 F1167 X131.121 Y0.250
G1 F1167 X130.507 Y0.863 E0.0289
G0 F1167 X131.073 Y0.863
G1 F1167 X131.687 Y0.250 E0.0289
G0 F1167 X132.253 Y0.250
G1 F1167 X131.639 Y0.863 E0.0289
G0 F1167 X132.204 Y0.863
G1 F1167 X132.818 Y0.250 E0.0289
G0 F1167 X133.384 Y0.250
G1 F1167 X132.770 Y0.863 E0.0289
G0 F1167 X133.336 Y0.863
G1 F1167 X133.950 Y0.250 E0.0289
G0 F1167 X134.515 Y0.250
G1 F1167 X133.901 Y0.863 E0.0289
G0 F1167 X134.467 Y0.863
G1 F1167 X135.081 Y0.250 E0.0289
G0 F1167 X135.647 Y0.250
G1 F1167 X135.033 Y0.863 E0.0289
G0 F1167 X135.599 Y0.863
G1 F1167 X136.212 Y0.250 E0.0288
G0 F1167 X136.778 Y0.250
G1 F1167 X136.164 Y0.863 E0.0289
G0 F1167 X136.730 Y0.863
G1 F1167 X137.099 Y0.494 E0.0174
;PRINTING_TIME: 17
;REMAINING_TIME: 504
;LAYER:3
;Z:1.249
;HEIGHT:0.283
;HEIGHT-BELT:0.200
;PRINTING: try3, no 3.stl
;PRINTING_ID: 0
G1 F1800 E-0.4000
G0 F600 Z1.249
G0 F15000 X112.700 Y0.050
SET_VELOCITY_LIMIT ACCEL=8000.00
;TYPE:WALL-OUTER
;WIDTH:0.400
G1 F1800 E0.4000
G1 F1413 X137.300 Y0.050 E0.8182
G1 X137.300 Y1.064 E0.0337
G1 X112.700 Y1.064 E0.8182
G1 X112.700 Y0.050 E0.0337
SET_VELOCITY_LIMIT ACCEL=10000.00
G0 F15000 X112.899 Y0.460
;TYPE:GAP-FILL
;WIDTH:0.400
G1 F848 X113.302 Y0.863 E0.0190
G0 F848 X113.868 Y0.863
G1 F848 X113.254 Y0.250 E0.0289
G0 F848 X113.820 Y0.250
G1 F848 X114.433 Y0.863 E0.0288
G0 F848 X114.999 Y0.863
G1 F848 X114.385 Y0.250 E0.0289
G0 F848 X114.951 Y0.250
G1 F848 X115.565 Y0.863 E0.0289
G0 F848 X116.130 Y0.863
G1 F848 X115.517 Y0.250 E0.0288
G0 F848 X116.082 Y0.250
G1 F848 X116.696 Y0.863 E0.0289
G0 F848 X117.262 Y0.863
G1 F848 X116.648 Y0.250 E0.0289
G0 F848 X117.214 Y0.250
G1 F848 X117.828 Y0.863 E0.0289
G0 F848 X118.393 Y0.863
G1 F848 X117.779 Y0.250 E0.0289
G0 F848 X118.345 Y0.250
G1 F848 X118.959 Y0.863 E0.0289
G0 F848 X119.525 Y0.863
G1 F848 X118.911 Y0.250 E0.0289
G0 F848 X119.477 Y0.250
G1 F848 X120.090 Y0.863 E0.0288
G0 F848 X120.656 Y0.863
G1 F848 X120.042 Y0.250 E0.0289
G0 F848 X120.608 Y0.250
G1 F848 X121.222 Y0.863 E0.0289
G0 F848 X121.787 Y0.863
G1 F848 X121.174 Y0.250 E0.0288
G0 F848 X121.739 Y0.250
G1 F848 X122.353 Y0.863 E0.0289
G0 F848 X122.919 Y0.863
G1 F848 X122.305 Y0.250 E0.0289
G0 F848 X122.871 Y0.250
G1 F848 X123.484 Y0.863 E0.0288
G0 F848 X124.050 Y0.863
G1 F848 X123.436 Y0.250 E0.0289
G0 F848 X124.002 Y0.250
G1 F848 X124.616 Y0.863 E0.0289
G0 F848 X125.181 Y0.863
G1 F848 X124.568 Y0.250 E0.0288
G0 F848 X125.133 Y0.250
G1 F848 X125.747 Y0.863 E0.0289
G0 F848 X126.313 Y0.863
G1 F848 X125.699 Y0.250 E0.0289
G0 F848 X126.265 Y0.250
G1 F848 X126.878 Y0.863 E0.0288
G0 F848 X127.444 Y0.863
G1 F848 X126.830 Y0.250 E0.0289
G0 F848 X127.396 Y0.250
G1 F848 X128.010 Y0.863 E0.0289
G0 F848 X128.576 Y0.863
G1 F848 X127.962 Y0.250 E0.0289
G0 F848 X128.527 Y0.250
G1 F848 X129.141 Y0.863 E0.0289
G0 F848 X129.707 Y0.863
G1 F848 X129.093 Y0.250 E0.0289
G0 F848 X129.659 Y0.250
G1 F848 X130.273 Y0.863 E0.0289
G0 F848 X130.838 Y0.863
G1 F848 X130.225 Y0.250 E0.0288
G0 F848 X130.790 Y0.250
G1 F848 X131.404 Y0.863 E0.0289
G0 F848 X131.970 Y0.863
G1 F848 X131.356 Y0.250 E0.0289
G0 F848 X131.922 Y0.250
G1 F848 X132.535 Y0.863 E0.0288
G0 F848 X133.101 Y0.863
G1 F848 X132.487 Y0.250 E0.0289
G0 F848 X133.053 Y0.250
G1 F848 X133.667 Y0.863 E0.0289
G0 F848 X134.232 Y0.863
G1 F848 X133.619 Y0.250 E0.0288
G0 F848 X134.184 Y0.250
G1 F848 X134.798 Y0.863 E0.0289
G0 F848 X135.364 Y0.863
G1 F848 X134.750 Y0.250 E0.0289
G0 F848 X135.316 Y0.250
G1 F848 X135.929 Y0.863 E0.0288
G0 F848 X136.495 Y0.863
G1 F848 X135.881 Y0.250 E0.0289
G0 F848 X136.447 Y0.250
G1 F848 X137.061 Y0.863 E0.0289
G0 F848 X137.099 Y0.336
G1 F848 X137.013 Y0.250 E0.0040
;PRINTING_TIME: 23
;REMAINING_TIME: 497
;LAYER:4
;Z:1.532
;HEIGHT:0.283
;HEIGHT-BELT:0.200
M106 S77
;PRINTING: try3, no 3.stl
;PRINTING_ID: 0
G1 F1800 E-0.4000
G0 F600 Z1.532
G0 F15000 X112.700 Y0.050
SET_VELOCITY_LIMIT ACCEL=8000.00
;TYPE:WALL-OUTER
;WIDTH:0.400
G1 F1800 E0.4000
G1 F1413 X137.300 Y0.050 E0.8182
G1 X137.300 Y1.064 E0.0337
G1 X112.700 Y1.064 E0.8182
G1 X112.700 Y0.050 E0.0337
SET_VELOCITY_LIMIT ACCEL=10000.00
G0 F15000 X113.019 Y0.250
;TYPE:GAP-FILL
;WIDTH:0.400
G1 F848 X112.899 Y0.370 E0.0056
G0 F848 X112.971 Y0.863
G1 F848 X113.585 Y0.250 E0.0289
G0 F848 X114.151 Y0.250
G1 F848 X113.537 Y0.863 E0.0289
G0 F848 X114.102 Y0.863
G1 F848 X114.716 Y0.250 E0.0289
G0 F848 X115.282 Y0.250
G1 F848 X114.668 Y0.863 E0.0289
G0 F848 X115.234 Y0.863
G1 F848 X115.848 Y0.250 E0.0289
G0 F848 X116.413 Y0.250
G1 F848 X115.800 Y0.863 E0.0288
G0 F848 X116.365 Y0.863
G1 F848 X116.979 Y0.250 E0.0289
G0 F848 X117.545 Y0.250
G1 F848 X116.931 Y0.863 E0.0289
G0 F848 X117.497 Y0.863
G1 F848 X118.110 Y0.250 E0.0288
G0 F848 X118.676 Y0.250
G1 F848 X118.062 Y0.863 E0.0289
G0 F848 X118.628 Y0.863
G1 F848 X119.242 Y0.250 E0.0289
G0 F848 X119.807 Y0.250
G1 F848 X119.194 Y0.863 E0.0288
G0 F848 X119.759 Y0.863
G1 F848 X120.373 Y0.250 E0.0289
G0 F848 X120.939 Y0.250
G1 F848 X120.325 Y0.863 E0.0289
G0 F848 X120.891 Y0.863
G1 F848 X121.504 Y0.250 E0.0288
G0 F848 X122.070 Y0.250
G1 F848 X121.456 Y0.863 E0.0289
G0 F848 X122.022 Y0.863
G1 F848 X122.636 Y0.250 E0.0289
G0 F848 X123.202 Y0.250
G1 F848 X122.588 Y0.863 E0.0289
G0 F848 X123.153 Y0.863
G1 F848 X123.767 Y0.250 E0.0289
G0 F848 X124.333 Y0.250
G1 F848 X123.719 Y0.863 E0.0289
G0 F848 X124.285 Y0.863
G1 F848 X124.899 Y0.250 E0.0289
G0 F848 X125.464 Y0.250
G1 F848 X124.851 Y0.863 E0.0288
G0 F848 X125.416 Y0.863
G1 F848 X126.030 Y0.250 E0.0289
G0 F848 X126.596 Y0.250
G1 F848 X125.982 Y0.863 E0.0289
G0 F848 X126.548 Y0.863
G1 F848 X127.161 Y0.250 E0.0288
G0 F848 X127.727 Y0.250
G1 F848 X127.113 Y0.863 E0.0289
G0 F848 X127.679 Y0.863
G1 F848 X128.293 Y0.250 E0.0289
G0 F848 X128.858 Y0.250
G1 F848 X128.245 Y0.863 E0.0288
G0 F848 X128.810 Y0.863
G1 F848 X129.424 Y0.250 E0.0289
G0 F848 X129.990 Y0.250
G1 F848 X129.376 Y0.863 E0.0289
G0 F848 X129.942 Y0.863
G1 F848 X130.555 Y0.250 E0.0288
G0 F848 X131.121 Y0.250
G1 F848 X130.507 Y0.863 E0.0289
G0 F848 X131.073 Y0.863
G1 F848 X131.687 Y0.250 E0.0289
G0 F848 X132.253 Y0.250
G1 F848 X131.639 Y0.863 E0.0289
G0 F848 X132.204 Y0.863
G1 F848 X132.818 Y0.250 E0.0289
G0 F848 X133.384 Y0.250
G1 F848 X132.770 Y0.863 E0.0289
G0 F848 X133.336 Y0.863
G1 F848 X133.950 Y0.250 E0.0289
G0 F848 X134.515 Y0.250
G1 F848 X133.901 Y0.863 E0.0289
G0 F848 X134.467 Y0.863
G1 F848 X135.081 Y0.250 E0.0289
G0 F848 X135.647 Y0.250
G1 F848 X135.033 Y0.863 E0.0289
G0 F848 X135.599 Y0.863
G1 F848 X136.212 Y0.250 E0.0288
G0 F848 X136.778 Y0.250
G1 F848 X136.164 Y0.863 E0.0289
G0 F848 X136.730 Y0.863
G1 F848 X137.099 Y0.494 E0.0174
;PRINTING_TIME: 30
;REMAINING_TIME: 490
;LAYER:5
;Z:1.815
;HEIGHT:0.283
;HEIGHT-BELT:0.200
;PRINTING: try3, no 3.stl
;PRINTING_ID: 0
G1 F1800 E-0.4000
G0 F600 Z1.815
G0 F15000 X112.700 Y0.050
SET_VELOCITY_LIMIT ACCEL=8000.00
;TYPE:WALL-OUTER
;WIDTH:0.400
G1 F1800 E0.4000
G1 F1413 X137.300 Y0.050 E0.8182
G1 X137.300 Y1.064 E0.0337
G1 X112.700 Y1.064 E0.8182
G1 X112.700 Y0.050 E0.0337
SET_VELOCITY_LIMIT ACCEL=10000.00
G0 F15000 X112.899 Y0.460
;TYPE:GAP-FILL
;WIDTH:0.400
G1 F848 X113.302 Y0.863 E0.0190
G0 F848 X113.868 Y0.863
G1 F848 X113.254 Y0.250 E0.0289
G0 F848 X113.820 Y0.250
G1 F848 X114.433 Y0.863 E0.0288
G0 F848 X114.999 Y0.863
G1 F848 X114.385 Y0.250 E0.0289
G0 F848 X114.951 Y0.250
G1 F848 X115.565 Y0.863 E0.0289
G0 F848 X116.130 Y0.863
G1 F848 X115.517 Y0.250 E0.0288
G0 F848 X116.082 Y0.250
G1 F848 X116.696 Y0.863 E0.0289
G0 F848 X117.262 Y0.863
G1 F848 X116.648 Y0.250 E0.0289
G0 F848 X117.214 Y0.250
G1 F848 X117.828 Y0.863 E0.0289
G0 F848 X118.393 Y0.863
G1 F848 X117.779 Y0.250 E0.0289
G0 F848 X118.345 Y0.250
G1 F848 X118.959 Y0.863 E0.0289
G0 F848 X119.525 Y0.863
G1 F848 X118.911 Y0.250 E0.0289
G0 F848 X119.477 Y0.250
G1 F848 X120.090 Y0.863 E0.0288
G0 F848 X120.656 Y0.863
G1 F848 X120.042 Y0.250 E0.0289
G0 F848 X120.608 Y0.250
G1 F848 X121.222 Y0.863 E0.0289
G0 F848 X121.787 Y0.863
G1 F848 X121.174 Y0.250 E0.0288
G0 F848 X121.739 Y0.250
G1 F848 X122.353 Y0.863 E0.0289
G0 F848 X122.919 Y0.863
G1 F848 X122.305 Y0.250 E0.0289
G0 F848 X122.871 Y0.250
G1 F848 X123.484 Y0.863 E0.0288
G0 F848 X124.050 Y0.863
G1 F848 X123.436 Y0.250 E0.0289
G0 F848 X124.002 Y0.250
G1 F848 X124.616 Y0.863 E0.0289
G0 F848 X125.181 Y0.863
G1 F848 X124.568 Y0.250 E0.0288
G0 F848 X125.133 Y0.250
G1 F848 X125.747 Y0.863 E0.0289
G0 F848 X126.313 Y0.863
G1 F848 X125.699 Y0.250 E0.0289
G0 F848 X126.265 Y0.250
G1 F848 X126.878 Y0.863 E0.0288
G0 F848 X127.444 Y0.863
G1 F848 X126.830 Y0.250 E0.0289
G0 F848 X127.396 Y0.250
G1 F848 X128.010 Y0.863 E0.0289
G0 F848 X128.576 Y0.863
G1 F848 X127.962 Y0.250 E0.0289
G0 F848 X128.527 Y0.250
G1 F848 X129.141 Y0.863 E0.0289
G0 F848 X129.707 Y0.863
G1 F848 X129.093 Y0.250 E0.0289
G0 F848 X129.659 Y0.250
G1 F848 X130.273 Y0.863 E0.0289
G0 F848 X130.838 Y0.863
G1 F848 X130.225 Y0.250 E0.0288
G0 F848 X130.790 Y0.250
G1 F848 X131.404 Y0.863 E0.0289
G0 F848 X131.970 Y0.863
G1 F848 X131.356 Y0.250 E0.0289
G0 F848 X131.922 Y0.250
G1 F848 X132.535 Y0.863 E0.0288
G0 F848 X133.101 Y0.863
G1 F848 X132.487 Y0.250 E0.0289
G0 F848 X133.053 Y0.250
G1 F848 X133.667 Y0.863 E0.0289
G0 F848 X134.232 Y0.863
G1 F848 X133.619 Y0.250 E0.0288
G0 F848 X134.184 Y0.250
G1 F848 X134.798 Y0.863 E0.0289
G0 F848 X135.364 Y0.863
G1 F848 X134.750 Y0.250 E0.0289
G0 F848 X135.316 Y0.250
G1 F848 X135.929 Y0.863 E0.0288
G0 F848 X136.495 Y0.863
G1 F848 X135.881 Y0.250 E0.0289
G0 F848 X136.447 Y0.250
G1 F848 X137.061 Y0.863 E0.0289
G0 F848 X137.099 Y0.336
G1 F848 X137.013 Y0.250 E0.0040
;PRINTING_TIME: 37
;REMAINING_TIME: 483
;LAYER:6
;Z:2.098
;HEIGHT:0.283
;HEIGHT-BELT:0.200
;PRINTING: try3, no 3.stl
;PRINTING_ID: 0
G1 F1800 E-0.4000
G0 F600 Z2.098
G0 F15000 X112.700 Y0.050
SET_VELOCITY_LIMIT ACCEL=8000.00
;TYPE:WALL-OUTER
;WIDTH:0.400
G1 F1800 E0.4000
G1 F1413 X137.300 Y0.050 E0.8182
G1 X137.300 Y1.064 E0.0337
G1 X112.700 Y1.064 E0.8182
G1 X112.700 Y0.050 E0.0337
SET_VELOCITY_LIMIT ACCEL=10000.00
G0 F15000 X113.019 Y0.250
;TYPE:GAP-FILL
;WIDTH:0.400
G1 F848 X112.899 Y0.370 E0.0056
G0 F848 X112.971 Y0.863
